X: 250
T: Xiang mama
%%abc-version 2.0
%%abcx-abcm2ps-target-version 5.9.1 (29 Sep 2008)
%%abc-creator hum2abc beta
%%abcx-conversion-date 2013/10/02 07:52:29
%%abc-edited-by Helmut Schaffrath
%%humdrum-veritas 3659400056
%%humdrum-veritas-data 2084550336
%%continueall 1
%%barnumbers 0
L: 1/16
M: 2/4
K: G
d2 d2 d2 d e [I:setbarnb 1]| 
e2 d cd4 | 
B2 G2 A2 B A | 
G2 F ED4 | 
B2 B2 d2 d B | 
A2 G A d2 B2 | 
E2 D E F2 F E | 
D8 |]  



